X: 2
T: The Teetotallers
R: reel
M: 4/4
L: 1/8
K: Gmaj
|:(3DEF|G3F GABc|d2ge dBAc|BEED EFGA |BGAF GFED|
G3F GABc|d2ge dBAc|BEED EFGA |BGAF G2:||
|:A2|Beed e3f| geaf gfed| Add^c d3e | fdaf gfed|
Beed e3f|geaf gfed|BEED EFGA|BGAF G2:||

